X:1
T:A che mi fu egli
T:Stefano Landi
T:Source : Arie---Sesto libro---Venetia---B.Magni---1638. Editor : André Vierendeels (21/08/17).
T:Notes : Original clefs : C1, F4 Editorial accidentals above the staff Note values have been halved in 3-beat measures
T:A che mi fu egli
T:©
T:©
T:©
T:©
C:Stefano Landi
Z:©
%%score 1 2
L:1/8
Q:1/4=120
M:6/4
K:C
V:1 treble nm="Soprano" snm="S"
V:2 bass nm="MusicXML Part"
V:1
 e2 d2 c2 c4 c2 | c2 g6 f2 f2 | e2 d4 c6 ::[M:4/4] z2 EF G2 GA | BABc d2 de | ff f2 ffff | %6
w: A che mi fu'e- gli,|a che mi fu'e-|gli'A- mo- re,|for- se vuoi che l'ar-|do- re di tua fa- ce co|cen- te fie- ro tor- men- ta|
w: A che mi fu'e- gli,|a che mi fu'e-|gli'A- mo- re,|for- se nie- ghi'al mio|co- re i piu dol- ci ri-|po- si'e vuoi ch'a lo splen- do-|
w: A che mi fu'e- gli,|a che mi fu'e-|gli'A- mo- re,|for- se non sai che|mo- re chi s'es- po- ne'a i|tuo- i stra- li'e frà spe- m'e|
 fe e2 e d/c/ BA | ^G4 z E/^F/ G/A/B/c/ | d/e/f/d/ g/f/e/d/ c/d/e/c/ e/d/c/B/ | A2 Bc A4 | G8 | %11
w: to- re'in- ce- ne- ris- * ca il|cor ar- * * * * *||* da la men-|te.|
w: re i- o m'ab- ba- * gli di|duo lu- * * * * *||mi a- mo- ro-|si.|
w: ti- mo- re pro- va'in _ vi- sta|di be- * ni- * * *||gn'l'ul- ti- mi ma-|li|
[M:6/4] B2 c2 d2 e4 ^G2- | G2 A2 B2 B6 |[M:4/4] z4 e4 | z2 G3 GGG | G8 | G4 z4 | %17
w: Non vuo d'a- mor lan-|* gui- * re,|deh,|la- scia- mi dor-|mi-|re,|
w: Non vuo d'a- mor lan-|* gui- * re|deh,|la- scia- mi dor-|mi-|re,|
w: Non vuo d'a- mor lan-|* gui- * re,|deh,|la- scia- mi dor-|mi-|re,|
[M:6/4] z4 e2 e3 d cB | c2 cd e2 e3 d c2- | cd/c/ B3 c/B/ AB cd ef |[M:3/4] g3 f/e/ d2 | %21
w: non vuo, _ _ _|_ non _ _ vuo, _ _|_ _ _ _ _ _ _ _ _ _ _ _|non _ _ _|
w: non vuo, _ _ _|_ non _ _ vuo, _ _|_ _ _ _ _ _ _ _ _ _ _ _|non _ _ _|
w: non vuo, _ _ _|_ non _ _ vuo, _ _|_ _ _ _ _ _ _ _ _ _ _ _|non _ _ _|
[M:4/4] B6 B2 | ^c2 c2 d4 | z2 ef g^c cd | d6 ^c2 | z4 A4- | A4 EEEE | E6 D2 | E8 |] %29
w: vuo, non|vuo d'a- mor|lan- * * * gui- *|* re,|deh,|_ la- scia- mi dor-|mi- *|re.|
w: vuo, non|vuo d'a- mor|lan- * * * gui- *|* re,|deh,|_ la- scia- mi dor-|mi- *|re.|
w: vuo, non|vuo d'a- mor|lan- * * * gui- *|* re,|deh,|_ la- scia- mi dor-|mi- *|re.|
V:2
"^BC" A,2 B,2 E,2 A,4 A,2 | A,2 B,2 E,2 A,2 B,2 C2 |"^4  3" F,2 G,4 C,6 :: %3
[M:4/4] z2 C,D, E,2 E,^F, | G,^F,G,A, B,2 B,C | D2 D,E, F,2 F,G, | A,2 A,,B,, C,2 C,D, | E,8 | %8
 B,,4 E,4 |"^4  3" C,4 D,4 | G,,8 |[M:6/4]"^7 6""^#3" G,2 F,4 E,6 | E,2 F,4 E,6 |[M:4/4] C,8- | %14
 C,8 | C,8 | C,4 z4 |[M:6/4] z4 A,,2 A,,2 E,4 | A,,2 E,4 A,,6 | A,,2 E,4 A,,6 |[M:3/4] G,,4 D,2 | %21
[M:4/4] G,8 | A,4 _B,4 | _B,8 | A,2 ^G,2 A,4 |"^-natural3" A,8 |"^6" D,4 C,4 |"^-natural3" A,,8- | %28
 A,,8 |] %29

